X:48
T:Penttilan Sillalla  (On the Pentilla bridge)
M:2/4
L:1/16
Q:1/4=80
S:Konsta Jylha
R:jenkka
K:Em
|: "Em" efge B2B2 | GAGE "Am" F2F2 |
"B7" FGAc B2B(3F/2G/2F/2 | "Em" A2G2 GFE2 | !
efge B2B2 | Bege "Am" f2f2 | "B7" fgag fe^dB | "Em" e2e2 e4 :| !
|: "D7" D2FA cBce | "G" d2dg B2Bd | "D7" c2ce AGFD | "G" G2B2 d4 | !
"C" e2ef (3gag fe | "G" d2dg B2Bd | "D7" c2ce fdef | "G" g2g2 g4 :| !
|: "Em" efge B2B2 | GAGE "Am" F2F2 |
"B7" FGAc B2B(3F/2G/2F/2 | "Em" A2G2 GFE2 | !
efge B2B2 | Bege "Am" f2f2 | "B7" fgag fe^dB | "Em" e2e2 e4 :||
